X:1
T:Title
%%score { ( 1 3 ) | ( 2 4 ) }
L:1/8
Q:1/4=100
M:4/4
K:Eb
V:1 treble nm="Grand Piano"
V:3 treble 
V:2 bass 
V:4 bass 
V:1
 G2 B2 c2 [Ee]2 | B2 G2 G2 [DF]2 | E2 F2 G2 c2 | B2 G2 F4 | G2 [B,FB]2 [EGc]2 [Ge]2 | %5
w: C.~Steggall * * *|||||
 [_Gd]2 [D=Ac]2 [DAc]2 [D=GB]2 | [EGB]2 [E=Ac]2 [FBd]2 [Ff]2 | d2 z2 z4 | e2 B2 c3 B | %9
w: ||||
 e2 B2 c2 B2 | B2 [Ge]2 [FB]2 [B,EG]2 |[M:8/4] [CEG]2 [A,DF]2 [G,E]4 z8 |[M:4/4] [CEA]8 | %13
w: ||||
 [B,EG]8 |] %14
w: |
V:2
 [E,B,E]2 [G,B,E]2 [A,E]2 [C,A,]2 | [E,G,E]2 [G,B,E]2 [B,E]2 [B,,B,]2 | %2
 [C,G,C]2 [D,B,]2 [E,B,E]2 [F,A,D]2 | [G,B,E]2 [=A,CE]2 [B,D]4 | [E,B,E]2 D,2 C,2 [C,C]2 | %5
 [D,=A,]2 _G,2 =G,2 G,2 | E,2 C,2 B,,2 [D,B,]2 | B,2 z2 z4 | [G,B,E]2 [G,E]2 [A,EA]3 [A,DF] | %9
 [G,E]2 [G,E]2 [A,EA]2 [A,DF]2 | [G,B,E]2 [C,C]2 [D,F,]2 E,2 |[M:8/4] A,,2 B,,2 E,4 z8 | %12
[M:4/4] A,,8 | E,8 |] %14
V:3
 x8 | x8 | x8 | x8 | x8 | x8 | x8 | FG c2 [DB]4 | x8 | x8 | x8 |[M:8/4] x16 |[M:4/4] x8 | x8 |] %14
V:4
 x8 | x8 | x8 | x8 | x8 | x8 | x8 | D,F, [F,=A,E]2 [B,,B,]4 | x8 | x8 | x8 |[M:8/4] x16 | %12
[M:4/4] x8 | x8 |] %14

